X: 605
T: Faithful Brown Cow., The
T: drium-fionn donn .dileas.
R:air
N:"Moderate." "1st setting" "Collected from F. O'Neill."
B:O'Neill's 605
Z:"Transcribed by John Walsh (walsh@math.ubc.ca)
M:3/4
L:1/8
%Q:80
K:G
(Bc)|(d2 g2 f2)|(g2a2b2)|(g2f2d2)|d4 (de)|
=f2e2d2|e2f2g2|d2c2B2|c4 (Bc)|
(d2g2f2)|(g2a2b2)|(g2f2d2)|c4 (Bc)|
(d2e2f2)|(e2d2B2)|(A2G2) .G2|G4||
fe|d2c2A2|(.G2.G2) (AB)|c2d2 (BG)|A4 (d>c)|
(d2 g2 f2)|(d2c2) (BG)|(A2G2) G2|G4 (f>e)|
(d2c2A2)|G2 G2 (AB)|c2d2 (BG)|A4 (dc)|
d2g2 (f/g/a)|g2 (dc) (Bc)|(A2G2) .G2|G4||


